X: 37623
T: Sneug Water, The
R: waltz
M: 3/4
K: Dmajor
M:9/8
A, D2E|F2D A,3 DEF|E3- E2D F2D|B,3 D3 D2E|D3- D2D F2A|
B3 A3 G2A|F3 E3 D2A,|B,3 D3 DEF|E3- E2A- A2G|
F2D A,3 DEF|E3- E2D F2D|B,3 D3 DEF|E3- E2E F2G|
A3 B2F E2D|E3 F2D B,2A,|B,3 D3 D2E|D3- D2:|
|:D F2G|A3- A2A- A2B|A3- A2A F2A|B3- B2A B2d|B3 A3 G3|
B3 A3 G2A|F3 E3 D2A,|B,3 D3 DEF|E3- E2|
[1 E F2G|A3- A2A- A2B|A3- A2A F2A|B3- B2A B2d|B3 A3 G3|
A3 d2F E2D|E3 F2D B,2A,|B,3 D3 D2E|D3- D2:|
[2 E A2G|F2D A,3 DEF|E3- E2D F2D|B,3 D3 DEF|E3- E2E F2G|
A3 B2F E2D|E3 F2D B,2A,|B,3 D3 D2E|D3- D2||

